X:1
T:Title
%%score { ( 1 3 ) | ( 2 4 ) }
L:1/8
M:4/4
K:Bb
V:1 treble nm="Grand Piano"
V:3 treble 
V:2 bass 
V:4 bass 
V:1
 z4 z2[Q:1/4=100] [B,D]>[CE] | [DF]2 [DF]>[_D=E] [=DF]2 [DB]>[_Ec] | %2
 [Fd]2 [Fd]>[=E_d] [F=d]2 [Ge]>[Fd] | c2 c>=B c2 d2 | [DB]6 [DB]>[FA] | %5
 [EG]2 [EG]>[FA] [GB]2 [GB]>[EG] | [DF]2 [DF]>[DB] [Fd]2 [DB]>[Fd] | [=Ec]2 [EG]>[EG] [EA]2 [EB]2 | %8
[M:2/4] c4 | e4 |[M:4/4] d4 c4 | z4 z2 B2 | A6 z2 | c>=B c>B c2 F2 | d6 z2 | %15
 [DF]>[DF] [_D=E]>[=DF] [DB]2 [_EA]>[DB] |[M:19/16] c>Gc>[Fd][Ge]3/2e3/2dc3/2 | %17
[M:4/4] B>F =E>F [CEG]2 [C_EA]2[Q:1/4=98][Q:1/4=97][Q:1/4=95][Q:1/4=94][Q:1/4=92][Q:1/4=91][Q:1/4=89][Q:1/4=88][Q:1/4=86][Q:1/4=84][Q:1/4=83][Q:1/4=81][Q:1/4=80][Q:1/4=78][Q:1/4=77] | %18
[M:3/4] B6 |] %19
V:2
 z4 z2 [B,,F,]>[B,,F,] | [B,,B,]2 [B,,B,]>[B,,B,] [B,,B,]2 [B,,F,]>[B,,F,] | %2
 [B,,B,]2 [B,,B,]>[B,,B,] [B,,B,]2 [B,,B,]>[B,,B,] | [F,A,E]2 [F,A,E]>[F,_A,D] [F,=A,E]2 [F,A,F]2 | %4
 [B,,F,]6 [B,,F,]>[D,B,] | [E,B,]2 [E,B,]>[E,B,] [E,E]2 [E,E]>[E,B,] | %6
 [B,,B,]2 [B,,B,]>[B,,B,] [B,,B,]2 [B,,F,]>[B,,B,] | [C,G,]2 [C,C]>[C,C] [C,C]2 [C,B,]2 | %8
[M:2/4] [F,A,E]4 | G4 |[M:4/4] F4 E4 | [B,,F,]>[B,,F,] [B,,G,]>[B,,F,] [B,,B,]2 [B,,B,]>[B,,B,] | %12
 [F,CE]2 [F,C]2 [F,C]2 [F,CE]>[F,B,D] | [F,A,E]>[F,_A,D] [F,=A,E]>[F,_A,D] [F,=A,E]2 [F,CE]2 | %14
 B,2 F,>G, B,2 [B,,F,B,]>[B,,F,] | [B,,B,]>[B,,B,] [B,,B,]>[B,,B,] [B,,F,]2 [C,F,]>[B,,F,] | %16
[M:19/16] [E,G,E]>[E,CE][E,CE]>[D,=B,][C,C]3/2[K:treble]G3/2FE3/2 | %17
[M:4/4][K:bass] [F,B,D]>[F,B,D] [G,B,C]>[F,B,D] C,2 F,2 |[M:3/4] z2 G,2 F,2 |] %19
V:3
 x8 | x8 | x8 | x8 | x8 | x8 | x8 | x8 |[M:2/4] x4 | x4 |[M:4/4] x8 | %11
 [DB]>[DF] [_D=E]>[=DF] [DG]2 D>D | z2 E2 E2 A>B | x8 | DF B>G F2 D>[CE] | x8 |[M:19/16] x19/2 | %17
[M:4/4] x8 |[M:3/4] [B,D]2 E2 D2 |] %19
V:4
 x8 | x8 | x8 | x8 | x8 | x8 | x8 | x8 |[M:2/4] x4 | x4 |[M:4/4] x8 | x8 | x8 | x8 | B,,6 z2 | x8 | %16
[M:19/16] x11/2[K:treble] x4 |[M:4/4][K:bass] x8 |[M:3/4] B,,6 |] %19

